svgs/sharp-light/print.svg

<svg xmlns="http://www.w3.org/2000/svg" viewBox="0 0 512 512"><!--! Font Awesome Pro 6.6.0 by @fontawesome - https://fontawesome.com License - https://fontawesome.com/license (Commercial License) Copyright 2024 Fonticons, Inc. --><path d="M96 160l-32 0L64 32 64 0 96 0 384 0l64 64 0 96-32 0 0-82.7L370.7 32 96 32l0 128zm384 64L32 224l0 160 32 0 0-32 0-32 32 0 320 0 32 0 0 32 0 32 32 0 0-160zM448 416l0 64 0 32-32 0L96 512l-32 0 0-32 0-64-32 0L0 416l0-32L0 224l0-32 32 0 448 0 32 0 0 32 0 160 0 32-32 0-32 0zM96 352l0 128 320 0 0-128L96 352zm352-96l0 32-32 0 0-32 32 0z"/></svg>

<svg xmlns="http://www.w3.org/2000/svg" viewBox="0 0 512 512"><!--! Font Awesome Pro 6.4.0 by @fontawesome - https://fontawesome.com License - https://fontawesome.com/license (Commercial License) Copyright 2023 Fonticons, Inc. --><path d="M96 160H64V32 0H96 384l64 64v96H416V77.3L370.7 32H96V160zm384 64H32V384H64V352 320H96 416h32v32 32h32V224zM448 416v64 32H416 96 64V480 416H32 0V384 224 192H32 480h32v32V384v32H480 448zM96 352V480H416V352H96zm352-96v32H416V256h32z"/></svg>
